assets/customers/dark/bayesline/bayesline_small.svg

<svg xmlns="http://www.w3.org/2000/svg" width="56" height="56" viewBox="0 0 56 56" fill="none">
  <path fill-rule="evenodd" clip-rule="evenodd" d="M20.7077 3.24553C22.6354 1.3178 23.5993 0.353928 24.7467 0.0974598C25.328 -0.0324866 25.9309 -0.0324866 26.5122 0.0974598C27.6596 0.353928 28.6234 1.3178 30.5512 3.24553L33.723 6.41729L30.5512 9.58906C28.6234 11.5168 27.6596 12.4807 26.5122 12.7371C25.9309 12.8671 25.328 12.8671 24.7467 12.7371C23.5993 12.4807 22.6354 11.5168 20.7077 9.58906L17.5359 6.41729L20.7077 3.24553ZM10.1716 8.38596C8.56514 9.99242 7.76191 10.7956 6.80576 11.0093C6.32132 11.1176 5.81894 11.1176 5.3345 11.0093C4.37835 10.7956 3.57512 9.99242 1.96867 8.38596L0 6.41729L1.96865 4.44863C3.57509 2.84217 4.37831 2.03895 5.33447 1.82521C5.81894 1.71695 6.32132 1.71695 6.80576 1.82521C7.76191 2.03895 8.56514 2.84217 10.1716 4.44863L12.1403 6.41729L10.1716 8.38596ZM3.05327 26.2956C4.4991 24.8499 5.222 24.1269 6.08251 23.9346C6.51853 23.8371 6.97065 23.8371 7.40667 23.9346C8.26719 24.1269 8.99009 24.8498 10.4359 26.2956L12.1403 28L10.4359 29.7043C8.99012 31.1501 8.26722 31.8733 7.40667 32.0654C6.97069 32.163 6.51853 32.163 6.08251 32.0654C5.222 31.8733 4.4991 31.1501 3.05329 29.7043L1.34892 28L3.05327 26.2956ZM6.80576 54.1749C7.76191 53.9611 8.56514 53.1578 10.1716 51.5513L12.1403 49.5826L10.1716 47.6139C8.56514 46.0078 7.76191 45.2045 6.80576 44.9907C6.32132 44.8824 5.81894 44.8824 5.33447 44.9907C4.37831 45.2045 3.57509 46.0078 1.96865 47.6139L0 49.5826L1.96867 51.5513C3.57512 53.1578 4.37835 53.9611 5.3345 54.1749C5.81894 54.2832 6.32132 54.2832 6.80576 54.1749ZM9.91634 20.3804C11.8441 22.3082 12.8079 23.272 13.9553 23.5285C14.5367 23.6584 15.1395 23.6584 15.7209 23.5285C16.8683 23.272 17.8321 22.3082 19.7599 20.3804L22.9316 17.2086L19.7599 14.0369C17.8321 12.1092 16.8683 11.1453 15.7209 10.8888C15.1395 10.7589 14.5367 10.7589 13.9553 10.8888C12.8079 11.1453 11.8441 12.1091 9.91634 14.0369L6.74457 17.2086L9.91634 20.3804ZM13.9553 45.1114C12.8079 44.8548 11.8441 43.8908 9.91634 41.9632L6.74457 38.7915L9.91634 35.6195C11.8441 33.6919 12.8079 32.7279 13.9553 32.4716C14.5367 32.3416 15.1395 32.3416 15.7209 32.4716C16.8682 32.7279 17.8321 33.6919 19.7598 35.6195L22.9316 38.7915L19.7599 41.9632C17.8321 43.8908 16.8683 44.8548 15.7209 45.1114C15.1395 45.2411 14.5367 45.2411 13.9553 45.1114ZM20.7077 24.8282L17.5359 28L20.7077 31.1717C22.6354 33.0997 23.5993 34.0633 24.7467 34.3199C25.328 34.45 25.9309 34.45 26.5122 34.3199C27.6596 34.0633 28.6234 33.0997 30.5512 31.1717L33.723 28L30.5512 24.8282C28.6234 22.9005 27.6596 21.9366 26.5122 21.6801C25.9309 21.5502 25.328 21.5502 24.7467 21.6801C23.5993 21.9366 22.6354 22.9005 20.7077 24.8282ZM20.7077 46.411C22.6354 44.4833 23.5993 43.5193 24.7467 43.2631C25.328 43.1331 25.9309 43.1331 26.5122 43.2631C27.6596 43.5193 28.6234 44.4833 30.5512 46.411L33.723 49.5826L30.5512 52.7546C28.6234 54.6822 27.6596 55.6462 26.5122 55.9025C25.9309 56.0325 25.328 56.0325 24.7467 55.9025C23.5993 55.6462 22.6354 54.6822 20.7077 52.7546L17.5359 49.5826L20.7077 46.411ZM32.7021 34.4165L28.3273 38.7915L32.7021 43.1662C34.951 45.4152 36.0757 46.5399 37.4143 46.839C38.0924 46.9907 38.7959 46.9907 39.474 46.839C40.8125 46.5399 41.9373 45.4152 44.1863 43.1662L48.561 38.7915L44.1863 34.4165C41.9373 32.1674 40.8125 31.043 39.474 30.7437C38.7959 30.5921 38.0924 30.5921 37.4143 30.7437C36.0757 31.043 34.951 32.1674 32.7021 34.4165ZM32.7021 12.8338C34.951 10.5848 36.0757 9.46024 37.4143 9.16104C38.0924 9.00943 38.7959 9.00943 39.474 9.16104C40.8125 9.46024 41.9373 10.5848 44.1863 12.8338L48.561 17.2087L44.1863 21.5835C41.9373 23.8325 40.8125 24.957 39.474 25.2562C38.7959 25.4078 38.0924 25.4078 37.4143 25.2562C36.0757 24.957 34.951 23.8325 32.7021 21.5835L28.3273 17.2086L32.7021 12.8338Z" fill="url(#paint0_linear_10972_6227)"/>
  <defs>
    <linearGradient id="paint0_linear_10972_6227" x1="27.5514" y1="1.25269e-06" x2="49.6502" y2="0.442551" gradientUnits="userSpaceOnUse">
      <stop stop-color="#FCFCFD"/>
      <stop offset="1" stop-color="#E0E1E6"/>
    </linearGradient>
  </defs>
</svg>

<svg xmlns="http://www.w3.org/2000/svg" width="56" height="56" fill="none" viewBox="0 0 56 56"><path fill="url(#a)" fill-rule="evenodd" d="M20.708 3.246C22.635 1.318 23.599.354 24.747.097a4.05 4.05 0 0 1 1.765 0c1.148.257 2.111 1.22 4.04 3.149l3.171 3.171-3.172 3.172c-1.928 1.928-2.891 2.892-4.039 3.148-.581.13-1.184.13-1.765 0-1.148-.256-2.112-1.22-4.04-3.148l-3.171-3.172zm-10.536 5.14c-1.607 1.606-2.41 2.41-3.366 2.623a3.4 3.4 0 0 1-1.471 0c-.957-.213-1.76-1.017-3.366-2.623L0 6.417 1.969 4.45c1.606-1.607 2.41-2.41 3.365-2.624a3.4 3.4 0 0 1 1.472 0c.956.214 1.76 1.017 3.366 2.624l1.968 1.968zm-7.119 17.91c1.446-1.446 2.169-2.17 3.03-2.361a3 3 0 0 1 1.324 0c.86.192 1.583.915 3.029 2.36L12.14 28l-1.704 1.704c-1.446 1.446-2.169 2.17-3.03 2.361a3 3 0 0 1-1.323 0c-.861-.192-1.584-.915-3.03-2.36L1.35 28zm3.753 27.879c.956-.214 1.76-1.017 3.366-2.624l1.968-1.968-1.968-1.97c-1.607-1.605-2.41-2.408-3.366-2.622a3.4 3.4 0 0 0-1.472 0c-.956.214-1.759 1.017-3.365 2.623L0 49.583l1.969 1.968c1.606 1.607 2.41 2.41 3.366 2.624.484.108.986.108 1.47 0m3.11-33.795c1.928 1.928 2.892 2.892 4.04 3.149.58.13 1.184.13 1.765 0 1.147-.257 2.111-1.22 4.039-3.149l3.172-3.171-3.172-3.172c-1.928-1.928-2.892-2.892-4.04-3.148a4.05 4.05 0 0 0-1.765 0c-1.147.256-2.11 1.22-4.039 3.148l-3.171 3.172zm4.04 24.731c-1.148-.256-2.112-1.22-4.04-3.148l-3.171-3.172 3.171-3.171c1.928-1.928 2.892-2.892 4.04-3.148a4.05 4.05 0 0 1 1.765 0c1.147.256 2.111 1.22 4.039 3.148l3.172 3.172-3.172 3.171c-1.928 1.928-2.892 2.892-4.04 3.148-.58.13-1.183.13-1.765 0m6.752-20.283L17.536 28l3.172 3.172c1.927 1.928 2.891 2.891 4.039 3.148.581.13 1.184.13 1.765 0 1.148-.257 2.111-1.22 4.04-3.148L33.722 28l-3.172-3.172c-1.928-1.927-2.891-2.891-4.039-3.148a4.05 4.05 0 0 0-1.765 0c-1.148.257-2.112 1.22-4.04 3.148m0 21.583c1.927-1.928 2.891-2.892 4.039-3.148a4.05 4.05 0 0 1 1.765 0c1.148.256 2.111 1.22 4.04 3.148l3.171 3.172-3.172 3.172c-1.928 1.927-2.891 2.891-4.039 3.148-.581.13-1.184.13-1.765 0-1.148-.257-2.112-1.22-4.04-3.148l-3.171-3.172zM32.7 34.416l-4.375 4.376 4.375 4.374c2.249 2.25 3.374 3.374 4.712 3.673a4.7 4.7 0 0 0 2.06 0c1.339-.3 2.463-1.424 4.712-3.673l4.375-4.374-4.375-4.376c-2.249-2.249-3.373-3.373-4.712-3.672a4.7 4.7 0 0 0-2.06 0c-1.338.299-2.463 1.423-4.712 3.672m0-21.582c2.249-2.25 3.374-3.374 4.712-3.673a4.7 4.7 0 0 1 2.06 0c1.339.3 2.463 1.424 4.712 3.673l4.375 4.375-4.375 4.375c-2.249 2.249-3.373 3.373-4.712 3.672a4.7 4.7 0 0 1-2.06 0c-1.338-.299-2.463-1.424-4.712-3.672l-4.375-4.375z" clip-rule="evenodd"/><defs><linearGradient id="a" x1="27.551" x2="49.65" y1="0" y2=".443" gradientUnits="userSpaceOnUse"><stop stop-color="#FCFCFD"/><stop offset="1" stop-color="#E0E1E6"/></linearGradient></defs></svg>
